src/64x64/places/folder-gruvbox-material-purple-backup.svg

<svg xmlns="http://www.w3.org/2000/svg" width="64" height="64" version="1">
 <rect style="opacity:0.2" width="56" height="36" x="4" y="22" rx="2.8" ry="2.8"/>
 <path style="fill:#945e80" d="M 4,46.2 C 4,47.751 5.2488,49 6.8,49 H 57.2 C 58.751,49 60,47.751 60,46.2 V 15.8 C 60,14.249 58.751,13 57.2,13 H 32 C 27.8,13 26.4,7 22.2,7 H 6.8 C 5.2488,7 4,8.2488 4,9.8"/>
 <rect style="opacity:0.2" width="56" height="36" x="4" y="20" rx="2.8" ry="2.8"/>
 <rect style="fill:#E5DFC8" width="48" height="22" x="8" y="16" rx="2.8" ry="2.8"/>
 <rect style="fill:#d3869b" width="56" height="36" x="4" y="21" rx="2.8" ry="2.8"/>
 <path style="opacity:0.1;fill:#E5DFC8" d="M 6.8008,7 C 5.2496,7 4,8.2496 4,9.8008 V 10.801 C 4,9.2496 5.2496,8 6.8008,8 H 22.199 C 26.399,8 27.8,14 32,14 H 57.199 C 58.75,14 60,15.25 60,16.801 V 15.801 C 60,14.25 58.75,13 57.199,13 H 32 C 27.8,13 26.399,7 22.199,7 Z"/>
 <path style="fill:#4A413F" d="m32.414062 29.007812c-0.847796-0.03587-1.710894 0.03684-2.570312 0.226563-4.577161 1.010464-7.843948 5.079982-7.84375 9.765625h-2l3 3 3-3h-2c-0.000215-3.758774 2.603582-7.001904 6.275391-7.8125 3.676934-0.811728 7.4098 1.040338 8.988281 4.458984 1.578481 3.418647 0.566976 7.460066-2.435547 9.732422-3.002523 2.272357-7.167978 2.146994-10.029297-0.300781-1.014322-0.865885-2.31315 0.655599-1.298828 1.521484 3.566836 3.051324 8.7923 3.207653 12.535156 0.375 3.742857-2.832652 5.010657-7.904431 3.042969-12.166015-1.475766-3.196189-4.479132-5.302245-7.822266-5.728516-0.278594-0.03552-0.559197-0.0603-0.841797-0.07227zm-0.429687 3.978516a1.0001 1.0001 0 0 0 -0.984375 1.013672v4.863281a1.0001 1.0001 0 0 0 0.04102 0.433594 1.0001 1.0001 0 0 0 0.02734 0.07422 1.0001 1.0001 0 0 0 0.208985 0.332031l2.921875 3.896484a1.0003905 1.0003905 0 0 0 1.601562 -1.199218l-2.800782-3.734376v-4.666016a1.0001 1.0001 0 0 0 -1.015625 -1.013672z"/>
</svg>

<?xml version="1.0" encoding="UTF-8"?>
<svg width="64" height="64" version="1" xmlns="http://www.w3.org/2000/svg">
 <rect x="4" y="22" width="56" height="36" rx="2.8" ry="2.8" opacity=".2"/>
 <path d="m4 46.2c0 1.551 1.2488 2.8 2.8 2.8h50.4c1.551 0 2.8-1.249 2.8-2.8v-30.4c0-1.551-1.249-2.8-2.8-2.8h-25.2c-4.2 0-5.6-6-9.8-6h-15.4c-1.5512 0-2.8 1.2488-2.8 2.8" fill="#945e80"/>
 <rect x="4" y="20" width="56" height="36" rx="2.8" ry="2.8" opacity=".2"/>
 <rect x="8" y="16" width="48" height="22" rx="2.8" ry="2.8" fill="#E5DFC8"/>
 <rect x="4" y="21" width="56" height="36" rx="2.8" ry="2.8" fill="#d3869b"/>
 <path d="m6.8008 7c-1.5512 0-2.8008 1.2496-2.8008 2.8008v1.0002c0-1.5514 1.2496-2.801 2.8008-2.801h15.398c4.2 0 5.601 6 9.801 6h25.199c1.551 0 2.801 1.25 2.801 2.801v-1c0-1.551-1.25-2.801-2.801-2.801h-25.199c-4.2 0-5.601-6-9.801-6z" fill="#E5DFC8" opacity=".1"/>
 <path d="m32.414 29.008c-0.8478-0.03587-1.7109 0.03684-2.5703 0.22656-4.5772 1.0105-7.8439 5.08-7.8438 9.7656h-2l3 3 3-3h-2c-2.15e-4 -3.7588 2.6036-7.0019 6.2754-7.8125 3.6769-0.81173 7.4098 1.0403 8.9883 4.459 1.5785 3.4186 0.56698 7.4601-2.4355 9.7324-3.0025 2.2724-7.168 2.147-10.029-0.30078-1.0143-0.86588-2.3132 0.6556-1.2988 1.5215 3.5668 3.0513 8.7923 3.2077 12.535 0.375 3.7429-2.8327 5.0107-7.9044 3.043-12.166-1.4758-3.1962-4.4791-5.3022-7.8223-5.7285-0.27859-0.03552-0.5592-0.0603-0.8418-0.07227zm-0.42969 3.9785a1.0001 1.0001 0 0 0-0.98438 1.0137v4.8633a1.0001 1.0001 0 0 0 0.04102 0.43359 1.0001 1.0001 0 0 0 0.02734 0.07422 1.0001 1.0001 0 0 0 0.20898 0.33203l2.9219 3.8965a1.0004 1.0004 0 0 0 1.6016-1.1992l-2.8008-3.7344v-4.666a1.0001 1.0001 0 0 0-1.0156-1.0137z" fill="#4A413F"/>
</svg>
